X: 09031
T: DEREK'S JIG
C: Bob McQuillen 26 Mar 92
B: Bob's Note Book 9 #31
R: jig
Z: 2019 John Chambers <jc:trillian.mit.edu>
M: 6/8
L: 1/8
K: D
FG \
| AFD Bcd | cBc d2f | agf efg | fdB AFG |
| AFD Bcd | cBA dfa | gec Afe | dDD D :|
|: FG \
| ABA Adf | afd edB | ABA dBd | AFD EFG |
FEF GFG | AdB ABc | dfa gec | edd d :|
%%begintext align
%% Every so often, over the years,
%% some of my favorite school kids will make it into one of these tune books,
%% and that's what happened this time! This one's for Derek Buffum, now
%% of Hillsboro, NH, but raised in Antrim. He's got a real nice girlfriend
%% named Melissa, and would believe his dog's name is Jordache?
%% Well, it is! Well anyway, here's a tune for you, little Buff, with love from
%% MAC.
%%endtext

%%sep 1 1 500

%%sep 1 1 500

